Hatter-kde/actions/22/labplot-editgrid.svg

<?xml version="1.0" encoding="UTF-8"?>
<svg viewBox="0 0 22 22" xmlns="http://www.w3.org/2000/svg">
 <defs id="defs3051">
  <style id="current-color-scheme" type="text/css">.ColorScheme-Text {
        color:#363636;
      }</style>
 </defs>
 <path class="ColorScheme-Text" d="m2 3v16h17v-16h-17zm1 1h7v6h-7v-6zm8 0h7v6h-7v-6zm-4.9199 1.002a2 2 0 0 0-1.457 0.54883 2 2 0 0 0-0.37109 2.4199 2 2 0 0 0 2.25 0.96484 2 2 0 0 0 1.498-1.9355h-2l1.0586-1.6973a2 2 0 0 0-0.97852-0.30078zm-3.0801 5.998h7v7h-7v-7zm8 0h7v7h-7v-7zm5 1v5h1v-5h-1zm-2 2v3h1v-3h-1zm-2 1v2h1v-2h-1z" fill="currentColor"/>
</svg>

<svg xmlns="http://www.w3.org/2000/svg" viewBox="0 0 22 22">
  <defs id="defs3051">
    <style type="text/css" id="current-color-scheme">
      .ColorScheme-Text {
        color:#363636;
      }
      </style>
  </defs>
 <path 
    style="fill:currentColor;fill-opacity:1;stroke:none" 
	d="M 2 3 L 2 19 L 19 19 L 19 3 L 2 3 z M 3 4 L 10 4 L 10 10 L 3 10 L 3 4 z M 11 4 L 18 4 L 18 10 L 11 10 L 11 4 z M 6.0800781 5.0019531 A 2 2 0 0 0 4.6230469 5.5507812 A 2 2 0 0 0 4.2519531 7.9707031 A 2 2 0 0 0 6.5019531 8.9355469 A 2 2 0 0 0 8 7 L 6 7 L 7.0585938 5.3027344 A 2 2 0 0 0 6.0800781 5.0019531 z M 3 11 L 10 11 L 10 18 L 3 18 L 3 11 z M 11 11 L 18 11 L 18 18 L 11 18 L 11 11 z M 16 12 L 16 17 L 17 17 L 17 12 L 16 12 z M 14 14 L 14 17 L 15 17 L 15 14 L 14 14 z M 12 15 L 12 17 L 13 17 L 13 15 L 12 15 z "
    class="ColorScheme-Text"
    />
</svg>
